X:1
T:Title
%%score [ 1 ( 2 3 ) ( 4 5 ) ]
L:1/8
Q:1/4=96
M:4/4
K:D
V:1 treble nm="MusicXML Part"
V:2 treble nm="MusicXML Part"
V:3 treble 
V:4 bass nm="MusicXML Part"
V:5 bass 
V:1
 d2 d2 d2 c2 | B4 c4 | d2 A2 B2 B2 | c4 c4 | d2 A2 B2 B2 | e2 d2 c2 A2 | d4 e4 | f4 d4 | %8
w: ||||||||
 d2 B2 d2 c2 | d4 d4 | e4 e4 | f6 || z2 | z8 | z8 | z8 | z8 | z8 | z8 | z8 | z8 | z8 | z8 | z8 | %24
w: ||||||||||||||||
 z8 | z8 | z8 | z8 | z8 | z8 | z8 | z8 | z8 | z8 | z6 D2 | F4 A4 | d6 D2 | E2 B2 A2 G2 | F4 A4 | %39
w: |||||||||||||||
 B4 E4 | c6 d2 | B2 G2 E2 c2 | d4 d4 | B2 G2 E2 c2 | d4 A4 | AGFA GFEG | FEDF E2 A2 | AGFA GFEG | %48
w: |||||||||
 FEDF E2 A2 | ABAd cBcA | defe dcdA | GBdB Acec | AdFA fedc | edcB Adce | f6 || z2 | %56
w: ||||||||
"^Soprano Descant." z2 A2 c2 de | (f2 d2) A4 | d2 B2 d2 c2 | d4 e4 | f4 (e2 d2) | e4 z2 x2 | %62
w: Let all the .|world . in|eve- ry corn- er|sing, My|God and .|King!|
 z6 e2 | f2 (d4 B2) | d4 z2 e2 | f2 d4 c2 | A4 z2 B2 | (e2 c4) d2 | A2 F2 B2 ^G2 | (A2 B2) c2 A2 | %70
w: Must|shout, No .|door them|out, But a-|bove, the|heart . Must|bear the long- est|part . . Let|
 (d2 c2) (d2 e2) | f6 d2 | d2 B2 d2 c2 | d4 [fa]4 | ([eg]3 [df]) (e2 [eg]2) | [df]6 |] %76
w: all . the .|world in|eve- ry corn- er|sing, My|God . and .|King!|
V:2
 d2 d2 d2 c2 | B4 [EA]4 | F2 D2 B,2 E2 | C4 A4 | F2 D2 B,2 E2 | C4 z2 D2 | F4 A4 | d6 D2 | %8
w: ||||||||
 E2 B2 A2 G2 | F4 d4 | e4 A4 | d6 ||"^Choir verse 1" D2 | F4 A4 | d6 D2 | E2 B2 A2 G2 | F4 A4 | %17
w: ||||LET|all the|world in|eve- ry corn- er|sing, My|
 B4 E4 | c6 d2 | B2 G2 E2 c2 | d4 d4 | B2 G2 E2 c2 | d4 A4 | F2 D2 B,2 E2 | C4 A4 | F2 D2 B,2 E2 | %26
w: God and|King! The|heavens are not too|high, His|praise may thith- er|fly: The|earth is not too|low, His|prais- es there may|
 C4 z2 D2 | F4 A4 | d6 D2 | E2 B2 A2 G2 | F4 d4 | e4 A4 | d6 d2 | c2 B4 ^A2 | B4 [DF]4 | %35
w: grow. Let|all the|world in|eve- ry corn- er|sing, My|God and|King! *|||
 F2 G2 A2 G2 | F2 d2 c2 B2 | A2 G2 c2 B2 | A2 d2 c2 d2 | B2 ^G2 A2 B2 | c2 d2 c2 B2 | d2 B2 G2 e2 | %42
w: |||||||
 f2 e2 d2 c2 | d2 B2 G2 e2 | d4 A4 | F2 D2 B,2 E2 | C4 A4 | F2 D2 B,2 E2 | C4 z2 D2 | F4 A4 | %50
w: ||||||||
 d6 D2 | E2 B2 A2 G2 | F4 d4 | e4 A4 | d6 ||"^Verse 2" D2 | F4 A4 | d6 D2 | E2 B2 A2 G2 | F4 A4 | %60
w: |||||Let|all the|world in|eve- ry corn- er|sing, My|
 B4 E4 | c6 d2 | B2 G2 E2 c2 | d4 d4 | B2 G2 E2 c2 | d4 A4 | F2 D2 B,2 E2 | C4 A4 | F2 D2 B,2 E2 | %69
w: God and|King! The|church with psalms must|shout, No|door can keep them|out; But|a- bove all the|heart Must|bear the long- est|
 C4 z2 D2 | F4 A4 | d6 D2 | E2 B2 A2 G2 | F4 d4 | e4 A4 | d6 |] %76
w: part. Let|all the|world in|eve- ry corn- er|sing, My|God and|King!|
V:3
 x8 | x8 | D2 A,2 B,2 B,2 | A,4 E4 | D2 A,2 B,2 B,2 | A,4 z2 A,2 | B,4 C4 | D6 D2 | D2 D2 C2 E2 | %9
 D4 A4 | B4 A2 G2 | F6 || A,2 | D4 E4 | F6 D2 | D2 D2 D2 C2 | D4 E4 | F4 E4 | E6 D2 | D2 D2 D2 E2 | %20
 D4 D4 | D2 D2 D2 E2 | D4 E4 | D2 A,2 B,2 B,2 | A,4 E4 | D2 A,2 B,2 B,2 | A,4 z2 A,2 | B,4 C4 | %28
 D6 D2 | D2 D2 C2 E2 | D4 A4 | B4 (A2 G2) | F6 F2 | E2 D4 C2 | D4 x4 | x8 | x8 | x8 | x8 | x8 | %40
 x8 | x8 | x8 | x8 | D4 E4 | D2 A,2 B,2 B,2 | A,4 E4 | D2 A,2 B,2 B,2 | A,4 z2 A,2 | B,4 C4 | %50
 D6 D2 | D2 D2 C2 E2 | D4 A4 | B4 A2 G2 | F6 || A,2 | D4 E4 | F6 D2 | D2 D2 D2 C2 | D4 E4 | F4 E4 | %61
 E6 D2 | D2 D2 D2 E2 | D4 D4 | D2 D2 D2 E2 | D4 E4 | D2 A,2 B,2 B,2 | A,4 E4 | D2 A,2 B,2 B,2 | %69
 A,4 z2 A,2 | B,4 C4 | D6 D2 | D2 D2 C2 E2 | D4 A4 | B4 (A2 G2) | F6 |] %76
V:4
 D2 D2 D2 C2 | B,4 [C,A,]4 | A,2 A,2 A,2 ^G,2 | E,4 A,4 | A,2 A,2 A,2 ^G,2 | E,4 z2 F,2 | D,4 E,4 | %7
 A,6 F,2 | B,2 G,2 E,2 A,2 | A,4 D4 | D4 C4 | D6 || F,2 | A,4 C4 | D6 A,2 | B,2 G,2 E2 A,2 | %16
 A,4 A,4 | A,4 ^G,4 | A,6 A,2 | G,2 B,2 A,2 G,2 | F,4 A,4 | G,2 B,2 A,2 G,2 | F,4 A,4 | %23
 A,2 A,2 A,2 ^G,2 | E,4 A,4 | A,2 A,2 A,2 ^G,2 | E,4 z2 F,2 | D,4 E,4 | A,6 F,2 | B,2 G,2 E,2 A,2 | %30
 A,4 D4 | D4 C4 | D6 B,2 | ^A,2 B,4 F,2 | F,4 [B,,B,]4 | x8 | x8 | x8 | x8 | x8 | x8 | x8 | x8 | %43
 x8 | F,4 A,4 | A,2 A,2 A,2 ^G,2 | E,4 A,4 | A,2 A,2 A,2 ^G,2 | E,4 z2 F,2 | D,4 E,4 | A,6 F,2 | %51
 B,2 G,2 E,2 A,2 | A,4 D4 | D4 C4 | D6 || F,2 | A,4 C4 | D6 A,2 | B,2 G,2 E2 A,2 | A,4 A,4 | %60
 A,4 ^G,4 | A,6 A,2 | G,2 B,2 A,2 G,2 | F,4 A,4 | G,2 B,2 A,2 G,2 | F,4 A,4 | A,2 A,2 A,2 ^G,2 | %67
 E,4 A,4 | A,2 A,2 A,2 ^G,2 | E,4 z2 F,2 | D,4 E,4 | A,6 F,2 | B,2 G,2 E,2 A,2 | A,4 D4 | D4 C4 | %75
 D6 |] %76
V:5
 x8 | x8 | D,2 F,2 E,2 E,2 | A,,4 C,4 | D,2 F,2 E,2 E,2 | A,,4 z2 D,2 | B,,4 A,,4 | F,,6 D,2 | %8
 G,2 E,2 A,,2 C,2 | D,4 F,4 | G,4 A,4 | D,6 || D,2 | D,4 C,4 | B,,6 F,2 | G,2 E,2 A,2 A,2 | %16
 D,4 C,4 | D,4 E,4 | A,,6 F,2 | G,2 E,2 A,2 A,,2 | D,4 F,4 | G,2 E,2 A,2 A,,2 | D,4 C,4 | %23
 D,2 F,2 E,2 E,2 | A,,4 C,4 | D,2 F,2 E,2 E,2 | A,,4 z2 D,2 | B,,4 A,,4 | F,,6 D,2 | %29
 G,2 E,2 A,,2 C,2 | D,4 F,4 | G,4 A,4 | D,6 B,,2 | E,2 F,4 F,,2 | B,,4 x4 | D,2 E,2 F,2 G,2 | %36
 A,2 B,,2 C,2 D,2 | F,2 E,2 A,2 A,,2 | D,2 F,2 G,2 F,2 | B,,2 E,2 A,,2 E,2 | A,,2 B,,2 C,2 D,2 | %41
 G,2 E,2 A,,2 C,2 | D,2 E,2 F,2 A,2 | G,2 E,2 A,,2 C,2 | D,4 C,4 | D,2 F,2 E,2 E,2 | A,,4 C,4 | %47
 D,2 F,2 E,2 E,2 | A,,4 z2 D,2 | B,,4 A,,4 | F,,6 D,2 | G,2 E,2 A,,2 C,2 | D,4 F,4 | G,4 A,4 | %54
 D,6 || D,2 | D,4 C,4 | B,,6 F,2 | G,2 E,2 A,2 A,2 | D,4 C,4 | D,4 E,4 | A,,6 F,2 | %62
 G,2 E,2 A,2 A,,2 | D,4 F,4 | G,2 E,2 A,2 A,,2 | D,4 C,4 | D,2 F,2 E,2 E,2 | A,,4 C,4 | %68
 D,2 F,2 E,2 E,2 | A,,4 z2 D,2 | B,,4 A,,4 | F,,6 D,2 | G,2 E,2 A,,2 C,2 | D,4 F,4 | G,4 A,4 | %75
 D,6 |] %76

